apps/spreadsheeteditor/main/resources/img/toolbar/2.5x/big/btn-func-text.svg

<svg width="28" height="28" viewBox="0 0 28 28" fill="none" xmlns="http://www.w3.org/2000/svg">
<path d="M17.86 17.3215H10.1269L7.47111 24H6L13.655 5H14.5012L22 24H20.5028L17.86 17.3215ZM10.6086 16.1308H17.4174L14.8267 9.30995C14.6097 8.77498 14.3493 8.03292 14.0456 7.08379C13.8112 7.91213 13.5552 8.66281 13.2775 9.33583L10.6086 16.1308Z" fill="black"/>
</svg>

<svg xmlns="http://www.w3.org/2000/svg" width="28" height="28" fill="none"><path fill="#000" d="M17.86 17.322h-7.733L7.47 24H6l7.655-19h.846L22 24h-1.497l-2.643-6.678Zm-7.251-1.191h6.808l-2.59-6.821a32.957 32.957 0 0 1-.781-2.226 20.78 20.78 0 0 1-.768 2.252l-2.67 6.795Z"/></svg>
